X:208
T: UND ALS AN GRUENER SEITE
N: K2620
O: Europa, Mitteleuropa, Deutschland, Schleswig, Achtrup
R: Kinder - Lied, Reigen, Gesellschafts - Spiel
M: 2/4
L: 1/8
K: Bb
F | BBBB | B2F
F | dddd | d2B2 |
f2f2 | fed
d | cccc | B2F

